rospo-light/16x16/actions/reply-all-rtl.svg

<svg height="16" viewBox="0 0 16 16" width="16" xmlns="http://www.w3.org/2000/svg"><path d="m9.5 1.5v1.0429688l4.970703 3.4570312-4.970703 3.4570312v1.0429688l6.470703-4.5zm-3.5.0039062v2.5h-1c-3 0-5 2.1265-5 5.25 0 3.2499998 4 4.7499998 4 4.7499998s-1.8751-2.6525-1.4375-4c .36589-1.1265997 1.5726-1.9999998 2.9375-1.9999998h.5v2.4999998l6.46875-4.4999998z" fill="#5c616c"/></svg>

<?xml version="1.0" encoding="UTF-8" standalone="no"?>
<svg xmlns="http://www.w3.org/2000/svg" width="22" height="22" viewBox="0 0 22 22">
 <defs>
  <style type="text/css" id="current-color-scheme">
   .ColorScheme-Text { color:#5c616c; } .ColorScheme-Highlight { color:#5294e2; }
  </style>
 </defs>
 <path style="fill:currentColor;opacity:1" class="ColorScheme-Text" transform="translate(3 3)" d="M 9.5 1.5 L 9.5 2.5429688 L 14.470703 6 L 9.5 9.4570312 L 9.5 10.5 L 15.970703 6 L 9.5 1.5 z M 6 1.5039062 L 6 4.0039062 L 5 4.0039062 C 2 4.0039062 0 6.1304062 0 9.2539062 C 0 12.503906 4 14.003906 4 14.003906 C 4 14.003906 2.1249 11.351406 2.5625 10.003906 C 2.92839 8.8773063 4.1351 8.0039062 5.5 8.0039062 L 6 8.0039062 L 6 10.503906 L 12.46875 6.0039062 L 6 1.5039062 z"/>
</svg>
